!!!COM: Aaron Copland
!!!OTL: [T719_Cop-w31p15m164-175]
**kern	**dynam	**kern	**dynam	**kern	**dynam	**kern	**dynam	**kern	**dynam	**kern	**dynam
*grp:A	*grp:A	*grp:A	*grp:A	*grp:B	*grp:B	*grp:B	*grp:B	*grp:A	*grp:A	*grp:B	*grp:B
*part6	*part6	*part5	*part5	*part4	*part4	*part3	*part3	*part2	*part2	*part1	*part1
*staff6	*staff6	*staff5	*staff5	*staff4	*staff4	*staff3	*staff3	*staff2	*staff2	*staff1	*staff1
*I"Contrabass	*I"Contrabass	*I"Violoncello	*I"Violoncello	*I"Viola	*I"Viola	*I"Violin II	*I"Violin II	*I"Violin I	*I"Violin I	*I"Solo Clarinet in Bb	*I"Solo Clarinet in Bb
*I'Cb.	*	*I'Vc.	*	*I'Vla.	*	*I'Vln. II	*	*I'Vln. I	*	*I'Cl.	*
*clefF4	*	*clefF4	*	*clefC3	*	*clefG2	*	*clefG2	*	*clefG2	*
*ITrd7c12	*	*	*	*	*	*	*	*	*	*ITrd1c2	*
*k[b-e-a-d-g-]	*	*k[b-e-a-d-g-]	*	*k[b-e-a-d-g-]	*	*k[b-e-a-d-g-]	*	*k[b-e-a-d-g-]	*	*k[b-e-a-d-g-]	*
*D-:	*	*D-:	*	*D-:	*	*D-:	*	*D-:	*	*D-:	*
*M2/2	*	*M2/2	*	*M2/2	*	*M2/2	*	*M2/2	*	*M2/2	*
*met(c|)	*	*met(c|)	*	*met(c|)	*	*met(c|)	*	*met(c|)	*	*met(c|)	*
=1	=1	=1	=1	=1	=1	=1	=1	=1	=1	=1	=1
!LO:TX:a:t=(half)	!	!	!	!	!	!	!	!LO:TX:a:rj:t=[div. in 3]	!	!	!
!LO:TX:a:rj:t=[pizz.]	!LO:DY:ed=brack	!LO:TX:a:rj:t=[unis., arco]	!LO:DY:ed=brack	!	!	!	!	!LO:TX:a:i:rj:t=[at the point]	!LO:DY:ed=brack	!	!
4FF	mf	4FF'	mf	4r	.	4rv	.	8ffv 8bb- 8ddd-	mf	4r	.
.	.	.	.	.	.	.	.	8r	.	.	.
*	*	*	*	*	*	*^	*	*	*	*	*
!	!	!	!	!LO:TX:a:rj:t=[div.]	!LO:DY:ed=brack	!	!	!LO:DY:t=[ %s spicc. ]	!	!	!	!LO:DY:ed=brack
4r	.	4r	.	4A-' 4a-	mf	8b-'L	8g-'L	mf	4r	.	4ccc`	mf
.	.	.	.	.	.	8d-'J	8d-'J	.	.	.	.	.
*	*	*	*	*	*	*v	*v	*	*	*	*	*
4EE-	.	4EE-'	.	4r'	.	4r	.	8dd-v 8gg- 8bb-	.	4r	.
.	.	.	.	.	.	.	.	8r	.	.	.
*	*	*	*	*	*	*^	*	*	*	*	*
4r	.	4r	.	4G-' 4g-	.	8cc'L	8a-'L	.	4r	.	4fff`	.
.	.	.	.	.	.	8e-'J	8e-'J	.	.	.	.	.
*	*	*	*	*	*	*v	*v	*	*	*	*	*
!!LO:REH:t=165
=2	=2	=2	=2	=2	=2	=2	=2	=2	=2	=2	=2
4DD-	.	4DD-'	.	4r'	.	4rv	.	8ee-v 8aa- 8ccc	.	4r	.
.	.	.	.	.	.	.	.	8r	.	.	.
*	*	*	*	*	*	*^	*	*	*	*	*
4r	.	4r	.	4F' 4f	.	8ff'L	8dd-'L	.	4r	.	4ccc`	.
.	.	.	.	.	.	8a-'J	8a-'J	.	.	.	.	.
*	*	*	*	*	*	*v	*v	*	*	*	*	*
4EE-	.	4EE-'	.	4r'	.	4r	.	8aa-v 8ddd- 8fff	.	4r	.
.	.	.	.	.	.	.	.	8r	.	.	.
*	*	*	*	*	*	*^	*	*	*	*	*
4r	.	4r	.	4G-' 4g-	.	8dd-'L	8b-'L	.	4r	.	4ddd-`	.
.	.	.	.	.	.	8f'J	8f'J	.	.	.	.	.
*	*	*	*	*	*	*v	*v	*	*	*	*	*
=3	=3	=3	=3	=3	=3	=3	=3	=3	=3	=3	=3
4FF	.	4FF'	.	4r'	.	4rv	.	8ffv 8bb- 8ddd-	.	4ccc`	.
.	.	.	.	.	.	.	.	8r	.	.	.
*	*	*	*	*	*	*^	*	*	*	*	*
4r	.	4r	.	4A-' 4a-	.	8b-'L	8g-'L	.	4r	.	4fff`	.
.	.	.	.	.	.	8d-'J	8d-'J	.	.	.	.	.
*	*	*	*	*	*	*v	*v	*	*	*	*	*
4GG-	.	4GG-'	.	4r'	.	4r	.	8dd-v 8gg- 8bb-	.	4r`	.
.	.	.	.	.	.	.	.	8r	.	.	.
*	*	*	*	*	*	*^	*	*	*	*	*
4r	.	4r	.	4B-' 4b-	.	8cc'L	8a-'L	.	4r	.	4ccc`	.
.	.	.	.	.	.	8e-'J	8e-'J	.	.	.	.	.
*	*	*	*	*	*	*v	*v	*	*	*	*	*
=4	=4	=4	=4	=4	=4	=4	=4	=4	=4	=4	=4
*	*	*	*	*^	*	*	*	*	*	*	*
4FF	.	4FF'	.	8ryy@	4r	.	2r	.	8ee-v 8aa- 8ccc	.	4r`	.
.	.	.	.	8ryy@	.	.	.	.	8r	.	.	.
*	*	*	*	*	*	*	*	*	*^	*	*	*
!	!	!	!	!	!	!	!	!	!LO:TX:b:i:t=spicc.	!	!	!	!
!	!	!	!	!	!	!LO:HP:t=poco cresc.	!	!	!LO:TX:a:t=div. in 2	!	!LO:HP:t=poco cresc.	!	!LO:HP:t=poco cresc.
4r	.	4r	.	4a-	(8A-L	<	.	.	8fff'L	8ddd-'L	<	4ddd-	<
.	.	.	.	.	8a-'J)	.	.	.	8aa-'J	8aa-'J	.	.	.
*	*	*	*	*	*	*	*^	*	*v	*v	*	*	*
!	!LO:HP:t=poco cresc.	!	!LO:HP:t=poco cresc.	!	!	!	!	!	!LO:HP:t=poco cresc.	!	!	!	!
4EE-	<	4EE-'	<	8ryy@	4r	.	8ff'L	8dd-'L	<	4r	.	4ccc	.
.	.	.	.	8ryy@	.	.	8a-'J	8a-'J	.	.	.	.	.
*	*	*	*	*	*	*	*v	*v	*	*^	*	*	*
4r	.	4r	.	4g-	(8G-L	.	4r	.	8ddd-'L	8bb-'L	.	4r	.
.	.	.	.	.	8g-'J)	.	.	.	8ff'J	8ff'J	.	.	.
*	*	*	*	*	*	*	*	*	*v	*v	*	*	*
=5	=5	=5	=5	=5	=5	=5	=5	=5	=5	=5	=5	=5
*	*	*	*	*	*	*	*^	*	*	*	*	*
!	!	!	!	!	!	!	!LO:TX:a:i:t=sim.	!	!	!	!	!	!
4FF	.	4FF'	.	8ryy@	4r	.	8dd-L	8b-L	.	4rv	.	4fff	.
.	.	.	.	8ryy@	.	.	8fJ	8fJ	.	.	.	.	.
*	*	*	*	*	*	*	*v	*v	*	*^	*	*	*
4r	.	4r	.	4a-	(8A-L	.	4r	.	8bb-'L	8gg-'L	.	4ccc	.
.	.	.	.	.	8a-'J)	.	.	.	8dd-'J	8dd-'J	.	.	.
*	*	*	*	*	*	*	*^	*	*v	*v	*	*	*
4EE-	.	4EE-'	.	8ryy@	4r	.	8b-L	8g-L	.	4r	.	4r	.
.	.	.	.	8ryy@	.	.	8d-J	8d-J	.	.	.	.	.
*	*	*	*	*	*	*	*v	*v	*	*^	*	*	*
4r	.	4r	.	4g-	(8G-L	.	4r	.	8ccc'L	8aa-'L	.	4ddd-	.
.	.	.	.	.	8g-'J)	.	.	.	8ee-'J	8ee-'J	.	.	.
*	*	*	*	*v	*v	*	*	*	*v	*v	*	*	*
=6	=6	=6	=6	=6	=6	=6	=6	=6	=6	=6	=6
*	*	*	*	*	*	*^	*	*	*	*	*
!LO:TX:a:t=Tutti	!	!LO:TX:a:t=div.	!	!LO:TX:a:t=unis.	!	!	!	!	!	!	!	!
4DD-	f	4r	.	4r	.	8ccL	8a-L	.	4rv	.	4ccc	.
.	.	.	.	.	.	8e-J	8e-J	.	.	.	.	.
*	*	*	*	*	*	*	*	*	*^	*	*	*
4r	.	4F' 4f	f	(8FL	f	4r	4r	.	8fff'L	8ddd-'L	f	4fff	.
.	.	.	.	8f'J)	.	.	.	.	8aa-'J	8aa-'J	.	.	.
*	*	*	*	*	*	*	*	*	*v	*v	*	*	*
4EE-	.	4r'	.	4r	.	8ffL	8dd-L	f	4r	.	4ccc	f
.	.	.	.	.	.	8a-J	8a-J	.	.	.	.	.
*	*	*	*	*	*	*	*	*	*^	*	*	*
4r	.	4G-' 4g-	.	(8G-L	.	4r	4r	.	8ddd-'L	8bb-'L	.	8ddd-L	.
.	.	.	.	8g-'J)	.	.	.	.	8ff'J	8ff'J	.	8cccJ	.
*	*	*	*	*	*	*	*	*	*v	*v	*	*	*
!!LO:REH:t=170
=7	=7	=7	=7	=7	=7	=7	=7	=7	=7	=7	=7	=7
4FF	.	4r'	.	4r	.	8dd-'L	8b-'L	.	4r	.	8ddd-L	.
.	.	.	.	.	.	8f'J	8f'J	.	.	.	8cccJ	.
*	*	*	*	*	*	*v	*v	*	*	*	*	*
*	*	*clefC4	*	*	*	*	*	*	*	*	*
*	*	*	*	*	*	*	*	*^	*	*	*
4r'	.	4A-' 4a-	.	(8A-L	.	4r	.	8ddd-'L	8bb-'L	.	8bb-L	.
.	.	.	.	8a-'J)	.	.	.	8ff'J	8ff'J	.	8aa-J	.
!	!	!	!	!	!	!LO:TX:a:t=unis.	!	!	!	!	!	!
4GGn	.	4r'	.	4r	.	8ee-'L	.	8bb-'L	8bb-'L	.	4r	.
.	.	.	.	.	.	8b-'J	.	8ff'J	8ff'J	.	.	.
4r'	.	4B-' 4b-	.	(8B-L	.	8b-'L	.	8ff'L	8ff'L	.	8ddd-L	.
.	.	.	.	8b-'J)	.	8f'J	.	8f'J	8f'J	.	8cccJ	.
*	*	*	*	*	*	*	*	*v	*v	*	*	*
=8	=8	=8	=8	=8	=8	=8	=8	=8	=8	=8	=8
4AAn	.	4r'	.	4r	.	4r	.	4r	.	8bb-L	.
.	.	.	.	.	.	.	.	.	.	8aa-J	.
!	!	!	!	!	!	!	!	!LO:TX:a:t=unis.	!	!	!
4r'	.	4c' 4cc	.	(8cL	.	8ee-'L	.	8bb-'L	.	4r	.
.	.	.	.	8cc'J)	.	8b-'J	.	8ff'J	.	.	.
4GGn	.	4r'	.	4r	.	8b-'L	.	8ff'L	.	8ffL	.
.	.	.	.	.	.	8f'J	.	8f'J	.	8gg-J	.
4r'	.	4B-' 4b-	.	(8B-L	.	4r	.	4r	.	8aa-L	.
.	.	.	.	8b-'J)	.	.	.	.	.	8bb-J	.
=9	=9	=9	=9	=9	=9	=9	=9	=9	=9	=9	=9
4AAn	.	4r'	.	4r	.	8gg-'L	.	8ddd-'L	.	4r	.
.	.	.	.	.	.	8dd-'J	.	8gg-'J	.	.	.
!	!	!LO:TX:a:i:t=sim.	!	!	!	!	!	!	!	!	!
4r'	.	4c' 4cc'	.	(8cL	.	8ee-'L	.	8bb-'L	.	8ee-L	.
.	.	.	.	8cc'J)	.	8b-'J	.	8ee-'J	.	8ffJ	.
4BB-	.	4r'	.	4r	.	4r	.	4r	.	8gg-L	.
.	.	.	.	.	.	.	.	.	.	8aa-J	.
!	!	!	!	!	!	!LO:TX:a:i:t=sim.	!	!LO:TX:a:i:t=sim.	!	!	!
4r	.	4d-' 4dd-'	.	(8d-L	.	8gg-L'	.	8ddd-L'	.	4r	.
.	.	.	.	8dd-'J)	.	8dd-J'	.	8gg-J'	.	.	.
=10	=10	=10	=10	=10	=10	=10	=10	=10	=10	=10	=10
4C	.	4r'	.	4r	.	8bb-L'	.	8fffL'	.	4r	.
.	.	.	.	.	.	8ffJ'	.	8bb-J'	.	.	.
4r'	.	4e-' 4ee-'	.	(8e-L	.	4r	.	4r	.	8bb-L	<
.	.	.	.	8ee-'J)	.	.	.	.	.	8aa-J	.
4BB-	<	4r'	<	4r	<	8gg-L'	<	8ddd-L'	<	8gg-L	.
.	.	.	.	.	.	8dd-J'	.	8gg-J'	.	8ffJ	.
4r'	.	4d-' 4dd-'	.	(8d-L	.	8ee-L'	.	8bb-L'	.	8ee-L	.
.	.	.	.	8dd-'J)	.	8b-J'	.	8ee-J'	.	8dd-J	.
*	*	*	*	*clefG2	*	*	*	*	*	*	*
=11	=11	=11	=11	=11	=11	=11	=11	=11	=11	=11	=11
!	!	!LO:TX:a:t=unis.	!	!	!	!	!	!	!	!	!
4C	.	4r'	.	4r	.	8ee-L'	.	8bb-L'	.	4r	.
.	.	.	.	.	.	8b-J'	.	8ee-J'	.	.	.
4r	.	4e-'	.	(8e-L	.	8b-L'	.	8ffL'	.	8ffL	.
.	.	.	.	8ee-'J)	.	8fJ'	.	8b-J'	.	8gg-J	.
4D-	.	4r	.	4r	.	4r	.	4r	.	8aa-L	.
.	.	.	.	.	.	.	.	.	.	8bb-J	.
4r	.	4f'	.	(8fL	.	8gg-L'	.	8ddd-L'	.	4r	.
.	.	.	.	8ff'J)	.	8dd-J'	.	8gg-J'	.	.	.
!!LO:REH:t=175
=12	=12	=12	=12	=12	=12	=12	=12	=12	=12	=12	=12
4E-	.	4r	.	4r	.	8bb-L'	.	8fffL'	.	8r	.
.	.	.	.	.	.	8ffJ'	.	8bb-J'	.	8eee-	.
4r	.	4g-'	.	(8g-L	.	8ddd-L'	.	8aaa-L'	.	8fffL	.
.	.	.	.	8gg-'J)	.	8aa-J'	.	8ddd-J'	.	8eee-J	.
4F	.	4r	.	4r	.	8bb-L'	.	8fffL'	.	8ddd-L	.
.	.	.	.	.	.	8ffJ'	.	8bb-J'	.	8ccc-XJ	.
4r	.	4a-'	.	(8a-L	.	8gg-L'	.	8ddd-L'	.	8bb-L	.
.	.	.	.	8aa-'J)	.	8dd-J'	.	8gg-J'	.	8aa-J	.
=||	=||	=||	=||	=||	=||	=||	=||	=||	=||	=||	=||
*-	*-	*-	*-	*-	*-	*-	*-	*-	*-	*-	*-
!!!system-decoration: s1[(s2,s3,s4,s5,s6)]
